X:1
T:Title
%%score { ( 1 3 ) | ( 2 4 ) }
L:1/8
M:4/4
K:Ab
V:1 treble nm="Grand Piano"
V:3 treble 
V:2 bass 
V:4 bass 
V:1
 z4 z2[Q:1/4=100] [CE]>[CE] | [CA]>[CA] [CA]>[CA] [DF]<[CE] [CE]>[CE] | %2
 [CA]>[CA] [CA]>[DF] [CE]2 [CA]>[DB] | c>c [Gc]>[GB] A>A G>A | %4
[M:9/8] [=DB]>[DB][DB]- [DB]/[DF]/ [EB]2- [EB][CE]>[CE] | %5
[M:4/4] [CA]>[CA] [CA]>[CA] [DF]<[CE] [CE]>[CE] | [CA]>[CA] [CA]>[DF] [CE]2 c>d | %7
 e>e e>c [GB]<[EA] [GB]>[Gc] |[M:3/4] [CEA]6 |[M:1/4] [A,C]>[B,D] | %10
[M:4/4] [CE]>[CE] [CE]>[CE] [DF]<[CE] [CA]>[Ec] | [Ee]6 z2 | B6[K:bass] z2[K:treble] | %13
 [CA]6[K:bass] z2[K:treble] | [CE]>[CE] [CE]>[CE] [DF]<[CE] [CA]>[Ec] | [Ee]6 z2 | B6 z2 | %17
[M:3/4] [CA]6 |] %18
V:2
 z4 z2 [A,,A,]>[A,,A,] | [A,,E,]>[A,,E,] [A,,E,]>[A,,E,] [A,,A,]<[A,,A,] [A,,A,]>[A,,A,] | %2
 [A,,E,]>[A,,E,] [A,,E,]>[A,,A,] [A,,A,]2 [A,,A,]>[A,,A,] | %3
 [A,E]>[A,E] [=E,C]>[E,C] [F,CF]>[F,CF] [F,B,F]>[F,CF] | %4
[M:9/8] [B,,B,]>[B,,B,][B,,B,]- [B,,B,]/[B,,A,]/ [E,G,]2- [E,G,][A,,A,]>[A,,A,] | %5
[M:4/4] [A,,E,]>[A,,E,] [A,,E,]>[A,,E,] [A,,A,]<[A,,A,] [A,,A,]>[A,,A,] | %6
 [A,,E,]>[A,,E,] [A,,E,]>[A,,A,] [A,,A,]2[K:treble] [A,E]>[A,B,E] | %7
 [A,CA]>[A,CA] [A,CA]>[A,EA][K:bass] [E,D]<[E,C] [E,D]>[E,E] |[M:3/4] [A,,A,]6 | %9
[M:1/4] [A,,E,]>[A,,E,] |[M:4/4] [A,,A,]>[A,,A,] [A,,A,]>[A,,A,] [A,,A,]<[A,,A,] [A,,A,]>[A,,A,] | %11
 [C,A,]2 E,>E, A,2 C>E | D->[E,D-] [E,D-]>[E,D-] [E,D]2 D>E | %13
 [A,,E,]>A,, A,,>A,, A,,2 [A,,E,A,]>[A,,E,] | %14
 [A,,A,]>[A,,A,] [A,,A,]>[A,,A,] [A,,A,]<[A,,A,] [A,,A,]>[A,,A,] | [B,,A,]2 E,>E, A,2 C>E | %16
 D->[E,D-] [E,D-]>[E,D-] [E,D]2 [E,G,D]>[E,G,D] |[M:3/4] [A,,E,]6 |] %18
V:3
 x8 | x8 | x8 | x8 |[M:9/8] x9 |[M:4/4] x8 | x8 | x8 |[M:3/4] x6 |[M:1/4] x2 |[M:4/4] x8 | %11
 z2 D>D C2 E>c | z z/[K:bass] G,/ G,>G, G,2 E>[K:treble]c | %13
 z z/[K:bass] E,/ E,>E, E,2 C>[K:treble][B,D] | x8 | z2 D>D C2 E>c | z z/ G,/ G,>G, G,2 E>B | %17
[M:3/4] x6 |] %18
V:4
 x8 | x8 | x8 | x8 |[M:9/8] x9 |[M:4/4] x8 | x6[K:treble] x2 | x4[K:bass] x4 |[M:3/4] x6 | %9
[M:1/4] x2 |[M:4/4] x8 | x8 | [E,G,]2 z2 z4 | x8 | x8 | x8 | [E,G,]2 z2 z4 |[M:3/4] x6 |] %18

